!!!!SEGMENT: Distler_Jahrkreis_25_Herr-Gott-dich-loben-wir_3v.krn
!!!COM: Distler, Hugo
!!!CDT: 1908-1942
!!!OPR@@DE: Der Jahrkreis
!!!OPR@EN: The Year Cycle
!!!OTL@@DE: Herr Gott, dich loben wir (Tedeum)
!!!OTL@EN: Lord God, we praise you
!!!OPS: 5
!!!ONM: 25
**kern	**text	**kern	**text	**kern	**text
*part3	*part3	*part2	*part2	*part1	*part1
*staff3	*staff3	*staff2	*staff2	*staff1	*staff1
*Ibass	*	*Ialto	*	*Isoprn	*
*clefF4	*	*clefG2	*	*clefG2	*
*k[]	*	*k[]	*	*k[]	*
*MM120	*	*MM120	*	*MM120	*
=1	=1	=1	=1	=1	=1
1r	.	1r	.	2e	Herr
.	.	.	.	2g,	Gott,
4r	.	4r	.	4a	dich
1r	.	1r	.	(4cc	lo-
.	.	.	.	4.b	.
.	.	.	.	8a)	.
.	.	.	.	4g	ben
2r	.	2r	.	(2g	wir._
1r	.	1r	.	1a)	.
=2||	=2||	=2||	=2||	=2||	=2||
*M4/4	*	*M4/4	*	*M4/4	*
*met(C)	*	*met(C)	*	*met(C)	*
4F	Herr	4a	Herr	4cc	Herr
(4.C	Gott,_	2a,	Gott,	2cc,	Gott,
8D	.	.	.	.	.
[4E	.	4g	wir	4b	wir
=3	=3	=3	=3	=3	=3
8E]),	.	(8fL	dan-	4a	dan-
8AA	wir	8eJ)	.	.	.
8AA	dan-	(8dL	ken	4a	ken
8E	ken	8cJ)	.	.	.
2E	dir.	2B	dir.	2g	dir.
!!LO:LB:g=original
=4||	=4||	=4||	=4||	=4||	=4||
2r	.	2r	.	2cc,	Dich,
1r	.	1r	.	(4b	Va-
.	.	.	.	4cc	.
.	.	.	.	2a)	.
1r	.	1r	.	4a	ter,
.	.	.	.	4a	in
.	.	.	.	4b	E-
.	.	.	.	4a	wig-
1r	.	1r	.	1a	keit
=5||	=5||	=5||	=5||	=5||	=5||
4r	.	4r	.	4r	.
(4.E	ehrt_	(4g	ehrt_	2g	ehrt
.	.	4f)	.	.	.
8D)	.	.	.	.	.
4C	die	4e	die	4a	die
=6	=6	=6	=6	=6	=6
2G	Welt	(8dL	Welt_	4b	Welt
.	.	8e	.	.	.
.	.	8f	.	(4b	weit_
.	.	8gJ	.	.	.
(8FL	weit_	4a)	.	4.cc	.
8G	.	.	.	.	.
8A	.	[4g	weit_	.	.
8BJ	.	.	.	8b	.
=7	=7	=7	=7	=7	=7
4c)	.	4g]	.	4a)	.
4c	und	4f	und	4a	und
2C	breit.	2e	breit.	2g	breit.
!!LO:LB:g=original
=8||	=8||	=8||	=8||	=8||	=8||
4r	.	4r	.	4cc	All
1r	.	1r	.	(4cc	En-
.	.	.	.	4dd)	.
.	.	.	.	2b,	gel
1r	.	1r	.	4b	und
.	.	.	.	(4.dd	Him-
.	.	.	.	8eeL	.
.	.	.	.	8dd	.
.	.	.	.	8ccJ	.
2.r	.	2.r	.	2a)	.
.	.	.	.	4a	mels-
1r	.	1r	.	1a	heer,
=9||	=9||	=9||	=9||	=9||	=9||
1r	.	4r	.	4.g	und
.	.	4.c	und	.	.
.	.	.	.	8g	was
.	.	.	.	2a	die-
.	.	8c	was	.	.
.	.	([4d	die-	.	.
=10	=10	=10	=10	=10	=10
4G	und	8dL]	.	2.b	net
.	.	8eJ	.	.	.
4B	was	4f#	.	.	.
8E	die-	4g#)	.	.	.
8D	net	.	.	.	.
4C	dei-	4a	net	([4cc	dei-
=11	=11	=11	=11	=11	=11
2D	ner	4.gn	dei-	8ccL]	.
.	.	.	.	8bJ)	.
.	.	.	.	4a	ner
.	.	8f#	ner	.	.
2G	Ehr.	2g	Ehr.	2g	Ehr.
!!LO:LB:g=original
=12||	=12||	=12||	=12||	=12||	=12||
4r	.	4r	.	4cc	Auch
1r	.	1r	.	(2cc	Che-
.	.	.	.	4b)	.
.	.	.	.	4a	ru-
2r	.	2r	.	4.a,	bim
.	.	.	.	8a	und
1r	.	1r	.	(2cc	Se-
.	.	.	.	4.dd	.
.	.	.	.	8ee	.
1r	.	1r	.	4ff	.
.	.	.	.	4.ee	.
.	.	.	.	8dd	.
.	.	.	.	4cc	.
2.r	.	2.r	.	4dd)	.
.	.	.	.	2b	ra-
1r	.	1r	.	1a	phim
=13||	=13||	=13||	=13||	=13||	=13||
*M2/4	*	*M2/4	*	*M2/4	*
4F	sin-	4f	sin-	4a	sin-
4F	gen	4g	gen	4a	gen
=14	=14	=14	=14	=14	=14
*M4/4	*	*M4/4	*	*M4/4	*
*met(C)	*	*met(C)	*	*met(C)	*
4C	im-	2e	im-	4g	im-
4.G	mer	.	.	4a	mer
.	.	8d	mer	4b	mit
8G	mit	8d	mit	.	.
[4C	ho-	(8eL	ho-	[4cc	ho-
.	.	8f#	.	.	.
=15	=15	=15	=15	=15	=15
4C]	.	8g	.	4cc]	.
.	.	8aJ)	.	.	.
4E	her	(8bL	her_	4a	her
.	.	8ccJ)	.	.	.
2G	Stimm:	2dd	Stimm:	2b	Stimm:
!!LO:LB:g=original
=16||	=16||	=16||	=16||	=16||	=16||
2.r	.	2.r	.	2e	Hei-
.	.	.	.	4d,	lig,
2.r	.	2.r	.	2e	hei-
.	.	.	.	4d	lig,
1r	.	1r	.	(4e	hei-
.	.	.	.	4g)	.
.	.	.	.	4.g	lig
.	.	.	.	8g	ist
2.r	.	2.r	.	(8aL	un-
.	.	.	.	8bJ	.
.	.	.	.	2cc	.
2.r	.	2.r	.	4.b	.
.	.	.	.	8a)	.
.	.	.	.	4g	ser
1r	.	1r	.	1g	Gott!
=17||	=17||	=17||	=17||	=17||	=17||
2c	Hei-	1g	Hei-	(2e	Hei-
2G	lig	.	.	4.g	.
.	.	.	.	8a	.
=18	=18	=18	=18	=18	=18
4G	ist	4f#	lig	4b	.
(4.A	un-	4e	ist	4cc)	.
.	.	(4.a	un-	4.cc	lig
8GL	.	.	.	.	.
8F	.	.	.	.	.
8EJ	.	8gL	.	8cc	ist
=19	=19	=19	=19	=19	=19
2D)	.	8f#	.	2a	un-
.	.	8e	.	.	.
.	.	8d	.	.	.
.	.	8c#J	.	.	.
2E	ser	4B)	.	2g#	ser
*	*	*^		*	*	*
.	.	4B	4B	ser	.	.
=20	=20	=20	=20	=20	=20	=20
*^		*	*	*	*	*	*
1A	1AAN	Gott!	1e	1c#	Gott!	1a	Gott!
*v	*v	*	*	*	*	*	*
*	*	*v	*v	*	*	*
==	==	==	==	==	==
*-	*-	*-	*-	*-	*-
!!!RDF**kern: N = cue size
!!!YOR: Bärenreiter-Ausgabe 676
!!!YOY: 1933
!!!EFL: 25/52
!!!URL-github: https://github.com/LucasHofmann/distler/blob/main/Jahrkreis/Distler_Jahrkreis_25_Herr-Gott-dich-loben-wir.krn
!!!URL-pdf: https://imslp.eu/files/imglnks/euimg/7/7d/IMSLP834545-PMLP518834-5-jahrkreis-EA--original-paper-600dpi.pdf#page=48 First edition, Kassel: Bärenreiter, 1933. Plate BA 676.
!!!URL-imslp: https://imslp.org/wiki/Der_Jahrkreis,_Op.5_(Distler,_Hugo)#IMSLP834545
!!!system-decoration: [(s1,s2,s3)]
!!!ENC: Lucas Hofmann
!!!END: 2024/01/08
!!!title: @{OPR@@DE}, Op. @{OPS}, Nr. @{ONM}. <i>@{OTL@@DE}</i>
